!!!!SEGMENT: pl-kk--kk-i-489--002_anonim--inclina-domine-aurem-tuam.krn
!!!cenid: 18xx:1353
!!!COM: Anonim
!!!COM-rismID: pe30004985
!!!CDT:
!!!CNT:
!!!OTL: Inclina Domine aurem tuam
!!!PDT:
!!!AGN: Sacred
!!!SMS-siglum: PL-Kk
!!!SMS-shelfmark: Kk.I.489
!!!SMS-shelfwork: 002 W
!!!SMS-variant:
!!!SMS-altvar:
!!!NIFC-rismSourceID: 1001136914
!!!NIFC-islandoraID: pl-kk:14513
!!!URL-pdf-islandora: https://repozytorium.nifc.pl/islandora/object/pl-kk%3A14513/datastream/PDF/view
!!!URL-scan: https://polish.musicsources.pl/pl/lokalizacje/galeria/rekopisy/6096 @EN{Scan on Polish Music Sources Website} @PL{Skany w portalu Dziedzictwo Muzyki Polskiej w otwartym dostępie}
!!!ONB-nifc: UWAGA: utwory w zbiorze: 1. Justrum animae, 2.Inclina Domine aurem tuam, 3. Ave Maris stella
!!!AIN: 2 empty
!!!key:
**kern	**text	**text	**kern	**dynam
*group1	*	*	*group1	*
*staff2	*staff2	*staff2	*staff1	*
*part2	*part2	*part2	*part1	*part1
*Iempty	*	*	*Iempty	*
*I"	*	*	*I"	*
*clefF4	*	*	*clefG2	*
*k[f#]	*	*	*k[f#]	*
*G:	*	*	*G:	*
*M4/4	*	*	*M4/4	*
*met(c)	*	*	*met(c)	*
=1	=1	=1	=1	=1
*2\right	*	*	*2\right	*
*^	*	*	*^	*
!	!	!	!	!LO:TX:a:t=Nor 2	!	!
!LO:TX:t=P:problem=all\right&colon; global	!	!	!	!LO:TX:t=P:problem=all\right&colon; global	!	!
2d/	2G\	In-	.	2b/	2g\	.
4c/	4G\	-cli-	.	4a/	4f#\	.
4B/	4G\	-na	.	4g/	4d\	.
=2	=2	=2	=2	=2	=2	=2
4.d/	4.F#\	Do-	.	4.dd/	4.a\	.
8d/	8F#\	-mi-	.	8cc/	8a\	.
4d/	4G\	-ne	.	4b/	4g\	.
4r	4ryy	.	.	4r	4ryy	.
=3	=3	=3	=3	=3	=3	=3
!	!	!	!	!LO:N:vis=2	!	!
2c/	2C\	au-	.	4g/	2e\	.
.	.	.	.	4r	.	.
4e/	4c\	.	.	4ee/	4g\	.
4d/	4B\	-rem	.	4dd/	4g\	.
=4	=4	=4	=4	=4	=4	=4
4e/	4A\	tu-	.	4dd/	4e\	.
4d/	4D\	.	.	4cc/	4f#\	.
4d/	4G\	-am	.	4b/	4g\	.
4r	4ryy	.	.	4r	4ryy	.
!!LO:LB:g=original
=5	=5	=5	=5	=5	=5	=5
2e/	2G\	et	.	2cc#X/	2.a\	.
4d/	4F#\	.	.	4dd/	.	.
4c#X/	4E\	ex-	.	4ee/	4a\	.
=6	=6	=6	=6	=6	=6	=6
2d/	4D\	-au-	.	4ff#/	2a\	.
.	4F#\	.	.	4dd/	.	.
4d/	4G\	-di	.	8cc#X/L	8a\L	.
.	.	.	.	8b/J	8g\J	.
4B/	4G\	ex-	.	8a/L	8f#\L	.
.	.	.	.	8g/J	8e\J	.
=7	=7	=7	=7	=7	=7	=7
2A/	2A\	-au-	.	2f#/	2d\	.
2G/	2AA\	-di	.	2e/	2c#X\	.
=8	=8	=8	=8	=8	=8	=8
4F#/	4D\	me	.	4d/	4d\	.
4r	4ryy	.	.	4r	4ryy	.
!	!	!	!	!	!	!LO:DY:b
2r	2ryy	.	.	2r	2ryy	pp
=9	=9	=9	=9	=9	=9	=9
4.d/	4.D\	quo-	.	4.a/	4.f#\	.
8d/	8D\	-ni-	.	8a/	8f#\	.
4d/	4D\	-am	.	4a/	4f#\	.
4d/	4D\	in-	.	4a/	4f#\	.
*	*	*	*	*v	*v	*
!!LO:PB:g=original
=10	=10	=10	=10	=10	=10
2.d/	2G\	-ops	.	4g\ 4b	.
.	.	.	.	4b\ 4dd	.
.	4F#\	.	.	4a\ 4ccn	.
4d/	4G\	et	.	4g\ 4b	.
=11	=11	=11	=11	=11	=11
2d/	2D\	pau-	.	2f#/ 2a	.
4d/	4D\	-per	.	4e/ 4g	.
4d/	4D\	sum	.	4f#/ 4a	.
=12	=12	=12	=12	=12	=12
2d/	2G\	e-	.	2g/ 2b	.
4B/	4G\	-go	.	4d/ 4g	.
4r	4ryy	.	.	4r	.
*v	*v	*	*	*	*
=13	=13	=13	=13	=13
4.e/	cu-	.	4.g/ 4.cc	.
8e/	-sto-	.	8g/ 8cc	.
4d/	-di	.	4g/ 4b	.
!	!	!	!	!LO:DY:b
4ryy	.	.	4r	f
=14	=14	=14	=14	=14
*^	*	*	*^	*
4e/	4c\	[a-	cu-	4.ee/	4g\	.
4f#/	4c\	-ni-	-sto-	.	4a\	.
.	.	.	.	8ee/	.	.
4d/	4B\	-mam]	-di	4dd/	4g\	.
4r	4ryy	.	.	4r	4ryy	.
!!LO:LB:g=original
=15	=15	=15	=15	=15	=15	=15
2d/	2F#\	a-	.	4dd/	2a\	.
.	.	.	.	4cc/	.	.
4d/	4G\	-ni-	.	4b/	4g\	.
4e/	4C\	-mam	.	8dd/L	4a\	.
.	.	.	.	8cc/J	.	.
=16	=16	=16	=16	=16	=16	=16
(4d/	2D\	me-	.	2b/	4g\	.
4c#X/)	.	.	.	.	4e\	.
4d/	4D\	-am	.	4a/	4f#\	.
4r	4ryy	.	.	4r	4ryy	.
*	*	*	*	*v	*v	*
=17	=17	=17	=17	=17	=17
!	!	!	!	!	!LO:DY:b
4.B/	4.G\	quo-	.	4.d/ 4.g	p
8B/	8G\	-ni-	.	8d/ 8g	.
4B/	4G\	-am	.	4d/ 4g	.
4r	4ryy	.	.	4r	.
=18	=18	=18	=18	=18	=18
4.d/	4.Fn\	quo-	.	4.g/ 4.b	.
8d/	8F\	-ni-	.	8g/ 8b	.
4d/	4F\	-am	.	4g/ 4b	.
4r	4ryy	.	.	4r	.
=19	=19	=19	=19	=19	=19
*	*	*	*	*^	*
2.e/	2.E\	San-	.	2b/	2g#X\	.
.	.	.	.	4a/	4f#\	.
4e/	4E\	-ctus	.	4b/	4g#\	.
!!LO:LB:g=original
=20	=20	=20	=20	=20	=20	=20
4e/	2A\	es	.	4cc\	4a\	.
4ryy	.	.	.	4r	4ryy	.
2ryy	4r	.	.	2r	2ryy	.
.	4G\	.	.	.	.	.
=21	=21	=21	=21	=21	=21	=21
2d/	2F#\	Sal-	.	2ee/	2cc\	.
4d/	4F#\	-vum	.	4dd/	4b\	.
4d/	4F#\	fac	.	4cc/	4a\	.
=22	=22	=22	=22	=22	=22	=22
2d/	2G\	ser-	.	2cc/	2a\	.
4d/	4G\	-vum	.	4b/	4g\	.
4r	4ryy	.	.	4r	4ryy	.
=23	=23	=23	=23	=23	=23	=23
2A/	2.D#X\	ser-	.	2f#/ 2cc	2reyy	.
4B/	.	.	.	4b/	4g\	.
4c/	4D#\	-vum	.	4a/	4f#\	.
*	*	*	*	*v	*v	*
=24	=24	=24	=24	=24	=24
2B/	2E\	tu-	.	2f#/ 2a	.
4B/	4E\	-um	.	4e/ 4g	.
4r	4ryy	.	.	4r	.
=25	=25	=25	=25	=25	=25
*	*	*	*	*^	*
2e/	2C\	De-	.	2a/	2g\	.
4e/	4C\	-us	.	4a/	4g\	.
4r	4ryy	.	.	4r	4ryy	.
!!LO:LB:g=original
=26	=26	=26	=26	=26	=26	=26
*	*^	*	*	*	*	*
2c#X/	2AA\	2rBByy	me-	.	2a/	2g\	.
4c#/	4AA\	4A\	-us	.	4a/	4g\	.
4c#/	4A\	4rDDDyy	spe-	.	4a/	[4g\	.
*	*v	*v	*	*	*	*	*
=27	=27	=27	=27	=27	=27	=27
2d/	2D\	-ran-	.	2g/ 2b	2re]	.
4A/	4D\	-tem	.	8dd/L	4f#\	.
.	.	.	.	8cc/J	.	.
4c/	4D\	in	.	8b/L	4f#\	.
.	.	.	.	8a/J	.	.
=28	=28	=28	=28	=28	=28	=28
4B/	4G\	te	.	4g/	4d\	.
4r	4ryy	.	.	4r	4ryy	.
4r	4ryy	.	.	4r	4ryy	.
4B/	4G\	In-	.	4g/	4d\	.
=29	=29	=29	=29	=29	=29	=29
2G/	2C\	-cli-	.	4e/	2c\	.
.	.	.	.	4g/	.	.
4c/	4E\	-na	.	4cc/	4g\	.
!	!	!	!	!	!	!LO:DY:b
4c/	4C\	.	.	4ee/	4g\	f
=30	=30	=30	=30	=30	=30	=30
2B/	2G\	Do-	.	2dd/	2g\	.
4d/	4G\	-mi-	.	4b/	4g\	.
4B/	4G\	-ne	.	4g/	4d\	.
!!LO:LB:g=original
=31	=31	=31	=31	=31	=31	=31
!	!	!	!	!	!	!LO:DY:b
2.d/	2.D\	au-	.	2a/	2f#\	p
.	.	.	.	4g/	4e\	.
4d/	4D\	-rem	.	4a/	4f#\	.
=32	=32	=32	=32	=32	=32	=32
2d/	2.G\	tu	.	2b/	2g\	.
4B/	.	am	.	4g/	4d\	.
!	!	!	!	!	!	!LO:DY:b
4r	4F#\	.	.	4r	4ryy	f
=33	=33	=33	=33	=33	=33	=33
2.G/	2E\	et	.	2g/	2c\	.
.	4C\	.	.	4cc\	4e\	.
4c/	4E\	ex-	.	4ee\	4g\	.
=34	=34	=34	=34	=34	=34	=34
!	!	!	!	!	!	!LO:DY:b
2B/	2G\	-au-	.	2dd\	2g\	f
4d/	4G\	-di	.	4g/ 4b	2reyy	.
!	!	!	!	!	!	!LO:DY:b
4B/	4E\	ex-	.	4e/ 4g	.	p
=35	=35	=35	=35	=35	=35	=35
2e/	2C\	-au-	.	2a/	2g\	.
4d/	2D\	-di	.	4b/	2f#\	.
4c/	.	.	.	4a/	.	.
*	*	*	*	*v	*v	*
!!LO:LB:g=original
=36	=36	=36	=36	=36	=36
4B/	4G\	me	.	4d/ 4g	.
4r	4ryy	.	.	4r	.
!	!	!	!	!	!LO:DY:b
4r	4ryy	.	.	4r	f
4e/	4c\	ex-	.	4g/ 4cc	.
=37	=37	=37	=37	=37	=37
*	*	*	*	*^	*
!	!	!	!	!LO:N:vis=2	!	!
2.e/	2.c\	-au-	.	2.cc/	2.g\	.
4d/	4G\	-di	.	4b/	4g\	.
=38	=38	=38	=38	=38	=38	=38
2d/	2G\	me	.	2b/	2g\	.
4r	4r	.	.	4r	4ryy	.
4c/	4C\	ex-	.	4g/	4e\	.
=39	=39	=39	=39	=39	=39	=39
2.c/	2.C\	-au-	.	2.g/	2.e\	.
4B/	4GG/	-di	.	4g/	4d\	.
=40	=40	=40	=40	=40	=40	=40
1B;	1GG	me	.	1g;	1d	.
*v	*v	*	*	*	*	*
*	*	*	*v	*v	*
==	==	==	==	==
*-	*-	*-	*-	*-
!!!system-decoration: [(g1)]
!!!ENC: Anna Matuszewska
!!!END: 2021-01-16
!!!ENC: Marcin Jachim
!!!END: 2021-01-10
!!!YEC: Copyright 2022 Narodowy Instytut Fryderyka Chopina (https://polishscores.org)
!!!YEM: Licence CC BY 4.0 (https://creativecommons.org/licenses/by/4.0)
